dist/images/icons/facebook-copy.svg

<svg width="26" height="26" viewBox="0 0 26 26" fill="none" xmlns="http://www.w3.org/2000/svg">
<path d="M25.5938 13.25C25.5938 6.29297 19.957 0.65625 13 0.65625C6.04297 0.65625 0.40625 6.29297 0.40625 13.25C0.40625 19.5469 4.97656 24.7773 11.0195 25.6914V16.9062H7.82031V13.25H11.0195V10.5078C11.0195 7.35938 12.8984 5.58203 15.7422 5.58203C17.1641 5.58203 18.5859 5.83594 18.5859 5.83594V8.93359H17.0117C15.4375 8.93359 14.9297 9.89844 14.9297 10.9141V13.25H18.4336L17.875 16.9062H14.9297V25.6914C20.9727 24.7773 25.5938 19.5469 25.5938 13.25Z" fill="rgb(255, 198, 117)"/>
</svg>

<svg width="26" height="26" fill="none" xmlns="http://www.w3.org/2000/svg"><path d="M25.594 13.25C25.594 6.293 19.957.656 13 .656S.406 6.293.406 13.25c0 6.297 4.57 11.527 10.614 12.441v-8.785h-3.2V13.25h3.2v-2.742c0-3.149 1.878-4.926 4.722-4.926 1.422 0 2.844.254 2.844.254v3.098h-1.574c-1.575 0-2.082.964-2.082 1.98v2.336h3.504l-.559 3.656H14.93v8.785c6.043-.914 10.664-6.144 10.664-12.441z" fill="#FFC675"/></svg>
